X: 18225
T: Humours Of Kiltyclogher, The
R: jig
M: 6/8
K: Adorian
B|:AGE ~G2E|c2E EGE|DED D2E|GED D2B|
AGE ~G2E|c2E DE/F/G|ABc BGE|ABA A2B:|
|:c2B c2d|ecA ABc|~B3 GA/B/c|dBG GAB|
c2B c2d|ecA ABc|~B3 GAB|ABA A2B:|

